X:1
T:8 Lieder and Romances, Op.14
T:Ein Sonett
T:4. Ein Sonett
T:Johannes Brahms
T:"Aus dem 13. Jahrhundert"
T:8 Lieder and Romances, Op.14
T:Thibaut IV, Johann Gottfried Herder
T:OpenScore (CC0)
T:OpenScore (CC0)
C:Johannes Brahms
Z:Original French by Thibaut IV, Graf von Champagne und König von Navarra (1201 - 1253)  :  German translation by Johann Gottfried Herder (1744–1803)
Z:OpenScore (CC0)
%%score 1 { ( 2 4 ) | ( 3 5 ) }
L:1/8
Q:1/4=110
M:3/4
K:Ab
V:1 treble nm="Singstimme\nVoice"
V:2 treble nm="Pianoforte"
V:4 treble 
V:3 bass 
V:5 bass 
V:1
!p!"^Langsam, sehr innig" E2 | A4 A2 | A3 G B2 | d4 B2 | G4 E2 | A4 G z |!<(! c4 B z | %7
w: Ach|könnt ich,|könn- te ver-|ges- sen|sie, ihr|schö- nes,|lie- bes,|
 e3 =d!<)! e2 |!>(! _d4!>)! B2 | z2 z2!p! E2 | A4 A2 | A3 G B2 | d4 B2 | G4 =A2 |!<(! B4 B2 | %15
w: lieb- li- ches|We- sen,|den|Blick, die|freund- li- che|Lip- pe|die! Viel-|leicht ich|
 B3 A e2!<)! |!mf! e4 =d2 | z6 |[Q:1/4=130]"^Poco più animato" z2 z2"^cresc." B2 | _d4 d2 | %20
w: möch- te ge-|ne- sen!||Doch|ach, mein|
 (d2 _c2) c2 | _f2 f2 f2 | e4 e2 | e4 e2 | e2 =d2!f! d2 | a4 a2 | g4 z2 | z6 | z2 z2!p! B2 | %29
w: Herz, * mein|Herz kann es|nie! Und|doch ists|Wahn- sinn, zu|hof- fen|sie!||und|
 (G2 A2) F2 | E2 B2 A2 | (G2 A2) F2 |!<(! E2 d2 c2 | (B2 c2)!<)! A2 | (f6- |!>(! f2!>)! e2) z2 | %36
w: um _ sie|schwe- ben, gibt|Mut _ und|Le- ben, zu|wei- * chen|nie.|_ _|
[Q:1/4=130] z6[Q:1/4=129]"^.8"[Q:1/4=129] | %37
w: |
[Q:1/4=127]"^.2""^rit.  -   -   -   -   -" z6[Q:1/4=124]"^.4"[Q:1/4=120]"^.4" | %38
w: |
[Q:1/4=115] z2[Q:1/4=108]"^.2" z2!p![Q:1/4=99]"^.9" c2 |[Q:1/4=110]"^Tempo I" A4 A2 | A3 G B2 | %41
w: Und|denn, wie|kann ich ver-|
 d4 B2 | G4 E2 |!<(! A4 G z | c4 B z | e3 =d e2!<)! |!mf! _d4 B2 | z2 z2 E2 | A4 A2 | A3 G B2 | %50
w: ges- sen|sie, ihr|schö- nes,|lie- bes,|lieb- li- ches|We- sen,|den|Blick, die|freund- li- che|
 d4 B2 | G2 z2!f! a2 | a4 d2 | f3 e d2 | (c4 e2- |!>(! e4 G2)!>)! | A4 z2 | z6 ||[M:2/2] z8 | %59
w: Lip- pe|die? Viel|lie- ber|nim- mer  ge-|ne- *||sen!|||
 !fermata!z8 |] %60
w: |
V:2
 E2 | [CA]6 | A3 G B2 | d4 B2 | G4 E2- | (!>!A4 G2) | (!>!c4 B2) | !>!e3 =d e2 | (_d4 B2) | E4 D2 | %10
 A4 A2 | A3 G B2 | d4 B2 | G4 =A2 | B4 B2 | B3 A e2 | (e4 =d2) | z6 | _C2 B,2 A,2 | E4 E2 | E4 E2 | %21
 _G4 G2 | _G4 G2 | ([=A,=F]2 [B,=G]2 [=C=A]2 | [=DFB]2 [E=Ac]2 [FB=d]2) | ([FB=d]2 [GBe]2 [Adf]2) | %26
 ([Beg]2 [cea]2 [_dfb]2 | [Bdg]2 [Acf]2 [GBe]2 | [FAd]2 [EGc]2 [DFB]2) | ([B,DG]2 [CEA]2 [A,CF]2 | %30
 [G,B,E]2 [DFB]2 [CEA]2) | [B,DG]2 [CEA]2 [A,CF]2 | [G,B,E]2 [FAd]2 [EGc]2 | [DFB]2 [EGc]2 [CEA]2 | %34
 [B,DG]2 [dfb]2 [cea]2 | [Bdg]2 [cea]2 [Acf]2 | [Bdg]2 [GBe]2 [Acf]2 | %37
"^rit.  -   -   -   -   -" [FAd]2 [GBe]2 [EGc]2 | [FAd]2 [DFB]2 [EGc]2 | [CA]6 | (A3 G B2) | %41
 d4 B2 | G4 E2- | (A4 G2) | (c4 B2) | e3 =d e2 | _d4 B2 | E4 D2 | A4 A2 | A3 G B2 | d4 B2 | %51
 G4 [Ae_ga]2 | ([Afa]2 [e_g]2 [df]2) | ([Af]2 [_Ge]2 [Fd]2) | ([Ec]2 [DB]2 [CA-]2) | A2 =G2 B2 | %56
 A6 | A6 ||[M:2/2]!>(! A8!>)! | !fermata![CEA]8 |] %60
V:3
!p! z2 |"^legato" A,,6 | B,,6 | E,,6- | F,2 E,2 D,2 | C,2 E,2 B,,2 |!<(! A,,2 E,2 G,,2 | %7
 F,,2 E,2!<)! E,,2- |!ped! (E,2 G,2 B,2!ped-up! |[I:staff -1] E2 F2 G2) |[I:staff +1] A,,6 | %11
 C2 B,2 A,2 | G,2 F,2 [E,G,]2 | F,2 E,4 |!<(! F,2 =G,4 | A,2 E,4!<)! |!mf! (B,,2 F,2 A,2 | %17
 _C2 B,2 A,2-) | A,2 G,2 F,2 |"^cresc." ([E,G,]2 [F,A,]2 [G,B,]2 | [A,_C]2 [B,D]2 [CE]2) | %21
 ([_G,B,]2 [A,_C]2 [B,D]2 |[I:staff -1] [_CE]2 [D_F]2 E2) |[I:staff +1] [F,,,F,,]4 [F,,,F,,]2 | %24
 [B,,,B,,]4 [B,,,B,,]2 |!f! [B,,B,]4 [B,,B,]2 |!>(! E,,4 E,2 | E,,4 E,2!>)! |!p! E,,4 E,2 | %29
!p! E,,4 E,2 | E,,4 E,2 |"^legato" E,,4 E,2 |!<(! E,,4 E,2 | E,,4!<)! E,2 | E,,4 E,2 | %35
"^dim." E,,4 E,2 | E,,4 E,2 | E,,4 E,2 | E,,4 E,2 |!p! A,,6 | B,,6 | E,,6- | E,,2 E,2 D,2 | %43
!<(! C,2 E,2 B,,2 | A,,2 E,2 G,,2 | F,,2 E,2 E,,2-!<)! |!mf! (E,2 G,2 B,2 |[I:staff -1] E2 F2 G2) | %48
"^legato"[I:staff +1] A,,6 | B,,6 | G,2!<(! [F,A,]2 [E,G,]2 | F,2 E,2-!<)!!f! [C,E,A,]2 | [D,A,]6 | %53
"^dim." [D,,D,]6 | [E,,E,]4 ([E,-A,]2 | [E,B,]6) |!p! [A,,A,]6 | [A,,A,]6 || %58
[M:2/2] [A,,A,]4 [D,,D,]4 | !fermata![A,,,A,,]8 |] %60
V:4
 x2 | A2 G2 F2 | E2 D2 C2 | B,2[I:staff +1] A,2 G,2 | x6 |[I:staff -1] E6 | E6 | [EA]6 | [EG]6 | %9
 x6 | [CA]2 [EG]2 [DF]2 | E2 D2 C2 | B,2 A,2 x2 | G4 _G2 | F2 _F4 | E6 | [FA]6 | x6 | x6 | x6 | %20
 x6 | x6 | x6 | E4 E2 | x6 | x6 | x6 | x6 | x6 | x6 | x6 | x6 | x6 | x6 | x6 | x6 | x6 | x6 | x6 | %39
 (A2 G2 F2 | E2 D2 C2) | (B,2[I:staff +1] A,2 G,2 | F,2 E,2 D,2) |[I:staff -1] E6 | E6 | [EA]6 | %46
 [EG]6 | x6 | [CA]2 [EG]2 [DF]2 | [CE]2 [B,D]2 C2 | B,2 x4 | x6 | x6 | x6 | x6 | D6 | %56
 ([CA]2 [E_G]2 [DF]2) | ([CA]2 [E_G]2 [DF]2) ||[M:2/2] ([CA]2 [E_G]4 [DF]2) | x8 |] %60
V:5
 x2 | x6 | x6 | x6 | E,,4 D,2 | C,4 B,,2 | A,,4 G,,2 | F,,4 x2 | E,,4 z2 | z6 | x6 | B,,6 | E,,6 | %13
 D,2 C,4 | D,6 | C,4 _C,2 | B,,6 | z6 | z6 | E,,4 E,,2 | [A,,,A,,]4 [A,,,A,,]2 | %21
 [_G,,,_G,,]4 G,,2 | [_C,,_C,]4 [C,,C,]2 | x6 | x6 | x6 | x6 | x6 | x6 | x6 | x6 | x6 | x6 | x6 | %34
 x6 | x6 | x6 | x6 | x6 | x6 | x6 | x6 | x6 | C,4 B,,2 | A,,4 G,,2 | F,,4 x2 | E,,6- | E,,2 z2 z2 | %48
 x6 | x4 A,2 | E,,6 | D,2 C,2- A,,2 | x6 | x6 | x6 | x6 | x6 | x6 ||[M:2/2] x8 | x8 |] %60

